logos/cocoapods.svg

<?xml version="1.0" encoding="UTF-8" standalone="no"?>
<svg width="256px" height="256px" viewBox="0 0 256 256" version="1.1" xmlns="http://www.w3.org/2000/svg" xmlns:xlink="http://www.w3.org/1999/xlink" preserveAspectRatio="xMidYMid">
	<g>
		<path d="M255.348897,255.34934 L0,255.34934 L0,0 L255.348897,0 L255.348897,255.34934 Z" fill="#FA2A00"></path>
		<path d="M160.993202,135.983883 C157.155844,157.035756 139.075722,174.257939 111.185989,174.257939 C77.8700374,174.257939 57.8109348,149.786988 57.8109348,121.89696 C57.8109348,94.567932 76.8769716,69.5079681 110.895169,69.5079681 C140.075865,69.5079681 158.155987,87.8646828 160.851293,110.775007 L136.798844,110.775007 C134.670951,99.1075348 125.840178,90.2907681 111.185989,90.2907681 C92.1057245,90.2907681 81.2959705,105.377317 81.2959705,121.89696 C81.2959705,139.395588 93.3895372,153.489883 111.469659,153.489883 C124.847112,153.489883 133.670808,145.801013 136.515174,135.983883 L160.993202,135.983883 Z" fill="#FFFFFF"></path>
		<path d="M188.929083,71.834533 L174.232285,78.133066 L192.652913,121.209164 L174.225208,164.299268 L188.929083,170.583794 L201.292165,141.467086 L201.356006,141.601254 L209.910186,121.209164 L188.929083,71.834533 Z" fill="#FFFFFF"></path>
	</g>
</svg>

<svg preserveAspectRatio="xMidYMid" viewBox="0 0 256 256" xmlns="http://www.w3.org/2000/svg">
  <path fill="#FA2A00" d="M255.349 255.35H0V0h255.349v255.35Z"/>
  <path fill="#FFF" d="M160.993 135.984c-3.837 21.052-21.917 38.274-49.807 38.274-33.316 0-53.375-24.471-53.375-52.361 0-27.33 19.066-52.389 53.084-52.389 29.18 0 47.261 18.357 49.956 41.267H136.8c-2.128-11.667-10.959-20.484-25.613-20.484-19.08 0-29.89 15.086-29.89 31.606 0 17.499 12.094 31.593 30.174 31.593 13.377 0 22.2-7.689 25.045-17.506h24.478Z"/>
  <path fill="#FFF" d="m188.93 71.835-14.698 6.298 18.42 43.076-18.427 43.09 14.704 6.285 12.363-29.117.064.134 8.554-20.392-20.98-49.374Z"/>
</svg>
